assets/awsstorage/original.svg

<svg height="74" viewBox="0 0 74 74" width="74" xmlns="http://www.w3.org/2000/svg"><g fill="none" fill-rule="evenodd"><path d="m5 5h64v64h-64z" fill="#7aa116"/><path d="m1 1h72v72h-72z" stroke="#879196" stroke-width="2"/><path d="m14 30h12l.001 3h-12.001zm0 5h12c1.103 0 2-.897 2-2v-3c0-1.103-.897-2-2-2h-12c-1.103 0-2 .897-2 2v3c0 1.103.897 2 2 2m-2-16h16v-2h-16zm0-10h6v-2h-6zm0 5h7v-2h-7zm26 26.746c0 .692-.563 1.254-1.254 1.254h-33.492a1.255 1.255 0 0 1 -1.254-1.254v-15.746h36zm-29-38.746h14v7a1 1 0 0 0 1 1h7v13h-22zm16 1.414 4.586 4.586h-4.586zm14 19.586h-6v-14h-.009a1 1 0 0 0 -.284-.707l-8-8a1 1 0 0 0 -.707-.284v-.009h-16a1 1 0 0 0 -1 1v22h-6a1 1 0 0 0 -1 1v16.746a3.257 3.257 0 0 0 3.254 3.254h33.492a3.257 3.257 0 0 0 3.254-3.254v-16.746a1 1 0 0 0 -1-1" fill="#fff" transform="translate(17 15)"/></g></svg>

<svg xmlns="http://www.w3.org/2000/svg" width="74" height="74" viewBox="0 0 74 74"><title>Icon-Architecture-Category/48/Storage_48</title><g id="Icon-Architecture-Category/48/Storage_48" fill="none" fill-rule="evenodd" stroke="none" stroke-width="1"><path id="Rectangle" fill="#7aa116" d="M5 5h64v64H5z"/><path id="#879196-Border-Copy-24" stroke="#879196" stroke-width="2" d="M1 1h72v72H1z"/><g id="Icon-Category/48/Storage_48" fill="#fff" transform="translate(17 15)"><path id="Storage_Category-Icon_48_Squid" d="M14 30h12l.001 3H14zm0 5h12c1.103 0 2-.897 2-2v-3c0-1.103-.897-2-2-2H14c-1.103 0-2 .897-2 2v3c0 1.103.897 2 2 2m-2-16h16v-2H12zm0-10h6V7h-6zm0 5h7v-2h-7zm26 26.746c0 .692-.563 1.254-1.254 1.254H3.254A1.255 1.255 0 0 1 2 40.746V25h36zM9 2h14v7a1 1 0 0 0 1 1h7v13H9zm16 1.414L29.586 8H25zM39 23h-6V9h-.009a1 1 0 0 0-.284-.707l-8-8A1 1 0 0 0 24 .009V0H8a1 1 0 0 0-1 1v22H1a1 1 0 0 0-1 1v16.746A3.257 3.257 0 0 0 3.254 44h33.492A3.257 3.257 0 0 0 40 40.746V24a1 1 0 0 0-1-1"/></g></g></svg>
